;START_OF_HEADER
;HEADER_VERSION:0.1
;FLAVOR:Griffin
;GENERATOR.NAME:Cura_SteamEngine
;GENERATOR.VERSION:5.7.0
;GENERATOR.BUILD_DATE:2024-04-02
;TARGET_MACHINE.NAME:Ultimaker 3
;EXTRUDER_TRAIN.0.INITIAL_TEMPERATURE:220
;EXTRUDER_TRAIN.0.MATERIAL.VOLUME_USED:50753
;EXTRUDER_TRAIN.0.MATERIAL.GUID:506c9f0d-e3aa-4bd4-b2d2-23e2425b1aa9
;EXTRUDER_TRAIN.0.NOZZLE.DIAMETER:0.4
;EXTRUDER_TRAIN.0.NOZZLE.NAME:AA 0.4
;BUILD_PLATE.INITIAL_TEMPERATURE:60
;PRINT.TIME:29186
;PRINT.GROUPS:1
;PRINT.SIZE.MIN.X:6.922
;PRINT.SIZE.MIN.Y:2.426
;PRINT.SIZE.MIN.Z:0.2
;PRINT.SIZE.MAX.X:208.944
;PRINT.SIZE.MAX.Y:198.042
;PRINT.SIZE.MAX.Z:29
;SLICE_UUID:5abe048f-c700-4625-a4cc-de532bba5f63
;END_OF_HEADER
;Generated with Cura_SteamEngine 5.7.0
T0
M82 ;absolute extrusion mode

G92 E0
M190 S60
M109 S220
G0 F15000 X9 Y6 Z2
G280
G1 F1500 E-6.5
;LAYER_COUNT:193
;LAYER:0
M106 S255
M204 S1000
M205 X20 Y20
G1 F600 Z2.2
G0 F15000 X15.205 Y18.863 Z2.2
;TYPE:SKIRT
G1 F600 Z0.2
G1 F1500 E0
G1 F1350 X17.977 Y17.958 E0.03657
G1 X50.128 Y17.958 E0.43975
G1 X52.622 Y18.806 E0.47279
G1 X54.987 Y21.241 E0.51536
G1 X55.892 Y24.013 E0.55192
G1 X55.892 Y48.38 E0.85749
G1 X57.622 Y48.965 E0.8804
G1 X59.987 Y51.4 E0.92296
G1 X60.892 Y54.172 E0.95953
G1 X60.892 Y170.933 E2.42376
G1 X60.518 Y172.651 E2.44581
G1 X59.536 Y174.261 E2.46946
G1 X57.592 Y176.147 E2.50342
G1 X54.831 Y177.042 E2.53982
G1 X53.654 Y177.042 E2.55458
G1 X53.653 Y191.911 E2.74104
G1 X53.216 Y193.875 E2.76627
G1 X52.191 Y195.364 E2.78894
G1 X50.36 Y197.139 E2.82092
G1 X47.577 Y198.042 E2.85761
G1 X41.756 Y198.042 E2.93061
G1 X40.029 Y197.668 E2.95277
G1 X38.442 Y196.699 E2.97609
G1 X36.544 Y194.742 E3.01028
G1 X35.641 Y191.959 E3.04697
G1 X35.641 Y177.042 E3.23403
G1 X34.081 Y177.042 E3.25359
G1 X34.081 Y191.927 E3.44026
G1 X33.707 Y193.654 E3.46242
G1 X32.738 Y195.241 E3.48574
G1 X30.781 Y197.139 E3.51992
G1 X27.998 Y198.042 E3.55661
G1 X22.184 Y198.042 E3.62952
G1 X20.457 Y197.668 E3.65168
G1 X18.87 Y196.699 E3.675
G1 X16.972 Y194.742 E3.70919
G1 X16.069 Y191.959 E3.74588
G1 X16.069 Y177.042 E3.93294
G1 X13.031 Y177.042 E3.97104
G1 X11.313 Y176.668 E3.99309
G1 X9.703 Y175.686 E4.01674
G1 X7.817 Y173.742 E4.05071
G1 X6.922 Y170.981 E4.0871
G1 X6.922 Y53.722 E5.55758
G1 X7.77 Y51.228 E5.59061
G1 X10.205 Y48.863 E5.63318
G1 X11.922 Y48.303 E5.65583
G1 X11.922 Y23.722 E5.96408
G1 X12.77 Y21.228 E5.99712
G1 X15.205 Y18.863 E6.03968
G0 F15000 X15.418 Y19.214
G1 F1350 X18.04 Y18.358 E6.07427
G1 X50.061 Y18.358 E6.47583
G1 X52.402 Y19.154 E6.50683
G1 X54.636 Y21.454 E6.54704
G1 X55.492 Y24.076 E6.58163
G1 X55.492 Y48.667 E6.89001
G1 X57.402 Y49.313 E6.9153
G1 X59.636 Y51.613 E6.95551
G1 X60.492 Y54.235 E6.9901
G1 X60.492 Y170.889 E8.45298
G1 X60.141 Y172.502 E8.47368
G1 X59.223 Y174.007 E8.49579
G1 X57.38 Y175.795 E8.52799
G1 X54.767 Y176.642 E8.56244
G1 X53.254 Y176.642 E8.58141
G1 X53.253 Y191.869 E8.77236
G1 X52.843 Y193.712 E8.79604
G1 X51.884 Y195.105 E8.81725
G1 X50.148 Y196.788 E8.84757
G1 X47.516 Y197.642 E8.88227
G1 X41.799 Y197.642 E8.95396
G1 X40.178 Y197.291 E8.97476
G1 X38.694 Y196.385 E8.99656
G1 X36.895 Y194.53 E9.02897
G1 X36.041 Y191.898 E9.06367
G1 X36.041 Y176.642 E9.25499
G1 X33.681 Y176.642 E9.28458
G1 X33.681 Y191.884 E9.47572
G1 X33.33 Y193.505 E9.49652
G1 X32.424 Y194.989 E9.51832
G1 X30.569 Y196.788 E9.55073
G1 X27.937 Y197.642 E9.58543
G1 X22.227 Y197.642 E9.65704
G1 X20.606 Y197.291 E9.67783
G1 X19.122 Y196.385 E9.69964
G1 X17.323 Y194.53 E9.73204
G1 X16.469 Y191.898 E9.76674
G1 X16.469 Y176.642 E9.95806
G1 X13.075 Y176.642 E10.00062
G1 X11.462 Y176.291 E10.02132
G1 X9.957 Y175.373 E10.04343
G1 X8.169 Y173.53 E10.07563
G1 X7.322 Y170.917 E10.11008
G1 X7.322 Y53.789 E11.57891
G1 X8.118 Y51.448 E11.60991
G1 X10.418 Y49.214 E11.65012
G1 X12.322 Y48.593 E11.67524
G1 X12.322 Y23.789 E11.98629
G1 X13.118 Y21.448 E12.0173
G1 X15.418 Y19.214 E12.05751
G0 F15000 X15.631 Y19.565
G1 F1350 X18.103 Y18.758 E12.09012
G1 X49.994 Y18.758 E12.49004
G1 X52.182 Y19.502 E12.51902
G1 X54.285 Y21.667 E12.55687
G1 X55.092 Y24.139 E12.58948
G1 X55.092 Y48.954 E12.90067
G1 X57.182 Y49.661 E12.92834
G1 X59.285 Y51.826 E12.96619
G1 X60.092 Y54.298 E12.9988
G1 X60.092 Y170.845 E14.46034
G1 X59.764 Y172.353 E14.47969
G1 X58.91 Y173.753 E14.50026
G1 X57.168 Y175.443 E14.5307
G1 X54.703 Y176.242 E14.56319
G1 X52.792 Y176.242 E14.58716
G1 X52.854 Y176.498 E14.59046
G1 X52.853 Y191.827 E14.78269
G1 X52.47 Y193.549 E14.80481
G1 X51.577 Y194.846 E14.82456
G1 X49.936 Y196.437 E14.85322
G1 X47.455 Y197.242 E14.88593
G1 X41.842 Y197.242 E14.95632
G1 X40.327 Y196.914 E14.97576
G1 X38.946 Y196.071 E14.99605
G1 X37.246 Y194.318 E15.02667
G1 X36.441 Y191.837 E15.05938
G1 X36.441 Y176.499 E15.25173
G1 X36.489 Y176.242 E15.255
G1 X33.219 Y176.242 E15.29601
G1 X33.281 Y176.498 E15.29932
G1 X33.281 Y191.841 E15.49172
G1 X32.953 Y193.356 E15.51116
G1 X32.11 Y194.737 E15.53145
G1 X30.357 Y196.437 E15.56207
G1 X27.876 Y197.242 E15.59478
G1 X22.27 Y197.242 E15.66508
G1 X20.755 Y196.914 E15.68452
G1 X19.374 Y196.071 E15.70481
G1 X17.674 Y194.318 E15.73544
G1 X16.869 Y191.837 E15.76814
G1 X16.869 Y176.499 E15.96049
G1 X16.917 Y176.242 E15.96377
G1 X13.119 Y176.242 E16.0114
G1 X11.611 Y175.914 E16.03075
G1 X10.211 Y175.06 E16.05131
G1 X8.521 Y173.318 E16.08175
G1 X7.722 Y170.853 E16.11425
G1 X7.722 Y53.856 E17.58143
G1 X8.466 Y51.668 E17.61041
G1 X10.631 Y49.565 E17.64826
G1 X12.722 Y48.883 E17.67584
G1 X12.722 Y23.856 E17.98969
G1 X13.466 Y21.668 E18.01867
G1 X15.631 Y19.565 E18.05652
G0 F15000 X15.844 Y19.916
G1 F1350 X13.814 Y21.888 E18.09201
G1 X13.122 Y23.923 E18.11897
G1 X13.122 Y49.173 E18.43561
G1 X10.844 Y49.916 E18.46566
G1 X8.814 Y51.888 E18.50115
G1 X8.122 Y53.923 E18.52811
G1 X8.122 Y170.789 E19.99365
G1 X8.873 Y173.106 E20.02419
G1 X10.465 Y174.747 E20.05287
G1 X11.76 Y175.537 E20.07189
G1 X13.163 Y175.842 E20.08989
G1 X17.415 Y175.842 E20.14322
G1 X17.269 Y176.499 E20.15166
G1 X17.269 Y191.776 E20.34324
G1 X18.025 Y194.106 E20.37395
G1 X19.626 Y195.757 E20.40279
G1 X20.904 Y196.537 E20.42157
G1 X22.313 Y196.842 E20.43965
G1 X27.815 Y196.842 E20.50865
G1 X30.145 Y196.086 E20.53936
G1 X31.796 Y194.485 E20.5682
G1 X32.576 Y193.207 E20.58698
G1 X32.881 Y191.798 E20.60506
G1 X32.881 Y176.498 E20.79693
G1 X32.669 Y175.842 E20.80557
G1 X36.987 Y175.842 E20.85972
G1 X36.841 Y176.499 E20.86816
G1 X36.841 Y191.776 E21.05974
G1 X37.597 Y194.106 E21.09046
G1 X39.198 Y195.757 E21.1193
G1 X40.476 Y196.537 E21.13807
G1 X41.885 Y196.842 E21.15615
G1 X47.394 Y196.842 E21.22524
G1 X49.724 Y196.086 E21.25596
G1 X51.267 Y194.59 E21.28291
G1 X52.097 Y193.384 E21.30127
G1 X52.453 Y191.785 E21.32181
G1 X52.454 Y176.498 E21.51351
G1 X52.242 Y175.842 E21.52216
G1 X54.639 Y175.842 E21.55222
G1 X56.956 Y175.091 E21.58276
G1 X58.597 Y173.499 E21.61144
G1 X59.387 Y172.204 E21.63046
G1 X59.692 Y170.801 E21.64846
G1 X59.692 Y54.361 E23.10866
G1 X58.934 Y52.039 E23.1393
G1 X56.962 Y50.009 E23.17479
G1 X54.989 Y49.338 E23.20092
G1 X54.692 Y49.317 E23.20465
G1 X54.692 Y24.202 E23.51961
G1 X53.934 Y21.88 E23.55024
G1 X51.962 Y19.85 E23.58573
G1 X49.927 Y19.158 E23.61268
G1 X18.166 Y19.158 E24.01098
G1 X15.844 Y19.916 E24.04161
G0 F15000 X16.057 Y20.267
G1 F1350 X14.162 Y22.108 E24.07474
G1 X13.522 Y23.99 E24.09967
G1 X13.522 Y49.558 E24.4203
G1 X13.168 Y49.578 E24.42475
G1 X11.057 Y50.267 E24.45259
G1 X9.162 Y52.108 E24.48573
G1 X8.522 Y53.99 E24.51065
G1 X8.522 Y170.725 E25.97455
G1 X9.225 Y172.894 E26.00315
G1 X10.719 Y174.434 E26.03005
G1 X11.909 Y175.16 E26.04754
G1 X13.207 Y175.442 E26.06419
G1 X17.913 Y175.442 E26.12321
G1 X17.669 Y176.541 E26.13732
G1 X17.669 Y191.715 E26.32761
G1 X18.376 Y193.894 E26.35634
G1 X19.878 Y195.443 E26.3834
G1 X21.053 Y196.16 E26.40066
G1 X22.356 Y196.442 E26.41738
G1 X27.754 Y196.442 E26.48507
G1 X29.933 Y195.735 E26.5138
G1 X31.482 Y194.233 E26.54086
G1 X32.199 Y193.058 E26.55812
G1 X32.481 Y191.755 E26.57484
G1 X32.481 Y176.562 E26.76536
G1 X32.118 Y175.442 E26.78013
G1 X37.485 Y175.442 E26.84743
G1 X37.241 Y176.541 E26.86155
G1 X37.241 Y191.715 E27.05184
G1 X37.948 Y193.894 E27.08056
G1 X39.45 Y195.443 E27.10762
G1 X40.625 Y196.16 E27.12488
G1 X41.928 Y196.442 E27.1416
G1 X47.333 Y196.442 E27.20938
G1 X49.512 Y195.735 E27.23811
G1 X50.96 Y194.331 E27.2634
G1 X51.724 Y193.221 E27.2803
G1 X52.053 Y191.743 E27.29929
G1 X52.054 Y176.562 E27.48966
G1 X51.691 Y175.442 E27.50443
G1 X54.575 Y175.442 E27.5406
G1 X56.744 Y174.739 E27.56919
G1 X58.284 Y173.245 E27.5961
G1 X59.01 Y172.055 E27.61358
G1 X59.292 Y170.757 E27.63023
G1 X59.292 Y54.424 E29.08909
G1 X58.583 Y52.252 E29.11774
G1 X56.742 Y50.357 E29.15088
G1 X54.86 Y49.717 E29.1758
G1 X54.292 Y49.717 E29.18293
G1 X54.292 Y24.265 E29.50211
G1 X53.583 Y22.093 E29.53076
G1 X51.742 Y20.198 E29.56389
G1 X49.86 Y19.558 E29.58882
G1 X18.229 Y19.558 E29.98548
G1 X16.057 Y20.267 E30.01413
G0 F15000 X16.27 Y20.618
G1 F1350 X18.292 Y19.958 E30.04081
G1 X49.793 Y19.958 E30.43584
G1 X51.522 Y20.546 E30.45874
G1 X53.232 Y22.306 E30.48952
G1 X53.892 Y24.328 E30.51619
G1 X53.892 Y50.117 E30.83959
G1 X54.793 Y50.117 E30.85089
G1 X56.522 Y50.705 E30.87379
G1 X58.232 Y52.465 E30.90457
G1 X58.892 Y54.487 E30.93124
G1 X58.892 Y170.713 E32.38876
G1 X58.633 Y171.906 E32.40407
G1 X57.971 Y172.991 E32.42001
G1 X56.532 Y174.387 E32.44515
G1 X54.511 Y175.042 E32.47179
G1 X51.141 Y175.042 E32.51405
G1 X51.654 Y176.623 E32.53489
G1 X51.653 Y191.701 E32.72398
G1 X51.351 Y193.058 E32.74141
G1 X50.653 Y194.072 E32.75685
G1 X49.3 Y195.384 E32.78048
G1 X47.272 Y196.042 E32.80722
G1 X41.971 Y196.042 E32.8737
G1 X40.774 Y195.783 E32.88906
G1 X39.702 Y195.129 E32.9048
G1 X38.299 Y193.682 E32.93008
G1 X37.641 Y191.654 E32.95681
G1 X37.641 Y176.583 E33.14581
G1 X37.926 Y175.302 E33.16227
G1 X38.069 Y175.042 E33.16599
G1 X31.568 Y175.042 E33.24751
G1 X32.081 Y176.623 E33.26836
G1 X32.081 Y191.712 E33.45758
G1 X31.822 Y192.909 E33.47294
G1 X31.168 Y193.981 E33.48869
G1 X29.721 Y195.384 E33.51396
G1 X27.693 Y196.042 E33.5407
G1 X22.399 Y196.042 E33.60709
G1 X21.202 Y195.783 E33.62244
G1 X20.13 Y195.129 E33.63819
G1 X18.727 Y193.682 E33.66347
G1 X18.069 Y191.654 E33.6902
G1 X18.069 Y176.583 E33.8792
G1 X18.354 Y175.302 E33.89566
G1 X18.497 Y175.042 E33.89938
G1 X13.251 Y175.042 E33.96516
G1 X12.058 Y174.783 E33.98047
G1 X10.973 Y174.121 E33.99641
G1 X9.577 Y172.682 E34.02155
G1 X8.922 Y170.661 E34.0482
G1 X8.922 Y54.057 E35.51045
G1 X9.51 Y52.328 E35.53336
G1 X11.27 Y50.618 E35.56413
G1 X13.292 Y49.958 E35.5908
G1 X13.922 Y49.958 E35.5987
G1 X13.922 Y24.057 E35.92351
G1 X14.51 Y22.328 E35.94641
G1 X16.27 Y20.618 E35.97719
G0 F15000 X16.483 Y20.969
G1 F1350 X14.858 Y22.548 E36.0056
G1 X14.322 Y24.124 E36.02647
G1 X14.322 Y50.358 E36.35546
G1 X13.355 Y50.358 E36.36759
G1 X11.483 Y50.969 E36.39228
G1 X9.858 Y52.548 E36.42069
G1 X9.322 Y54.124 E36.44157
G1 X9.322 Y170.597 E37.90218
G1 X9.929 Y172.47 E37.92687
G1 X11.227 Y173.808 E37.95025
G1 X12.207 Y174.406 E37.96465
G1 X13.295 Y174.642 E37.97861
G1 X19.258 Y174.642 E38.05339
G1 X18.744 Y175.389 E38.06476
G1 X18.469 Y176.625 E38.08064
G1 X18.469 Y191.593 E38.26834
G1 X19.078 Y193.47 E38.29309
G1 X20.379 Y194.812 E38.31653
G1 X21.353 Y195.406 E38.33083
G1 X22.442 Y195.642 E38.34481
G1 X27.632 Y195.642 E38.40989
G1 X29.509 Y195.033 E38.43464
G1 X30.851 Y193.732 E38.45808
G1 X31.445 Y192.758 E38.47238
G1 X31.681 Y191.669 E38.48636
G1 X31.681 Y176.684 E38.67428
G1 X31.1 Y174.894 E38.69788
G1 X30.913 Y174.642 E38.70181
G1 X38.83 Y174.642 E38.80109
G1 X38.316 Y175.389 E38.81246
G1 X38.041 Y176.625 E38.82834
G1 X38.041 Y191.593 E39.01605
G1 X38.65 Y193.47 E39.04079
G1 X39.951 Y194.812 E39.06423
G1 X40.925 Y195.406 E39.07854
G1 X42.014 Y195.642 E39.09251
G1 X47.211 Y195.642 E39.15768
G1 X49.088 Y195.033 E39.18243
G1 X50.346 Y193.813 E39.20441
G1 X50.978 Y192.895 E39.21838
G1 X51.253 Y191.659 E39.23426
G1 X51.254 Y176.684 E39.42205
G1 X50.673 Y174.894 E39.44565
G1 X50.486 Y174.642 E39.44959
G1 X54.447 Y174.642 E39.49926
G1 X56.32 Y174.035 E39.52395
G1 X57.658 Y172.737 E39.54733
G1 X58.256 Y171.757 E39.56173
G1 X58.492 Y170.669 E39.57569
G1 X58.492 Y54.55 E41.03186
G1 X57.881 Y52.678 E41.05656
G1 X56.302 Y51.053 E41.08497
G1 X54.726 Y50.517 E41.10585
G1 X53.492 Y50.517 E41.12132
G1 X53.492 Y24.391 E41.44895
G1 X52.881 Y22.519 E41.47365
G1 X51.302 Y20.894 E41.50206
G1 X49.726 Y20.358 E41.52294
G1 X18.355 Y20.358 E41.91634
G1 X16.483 Y20.969 E41.94103
G0 F15000 X16.696 Y21.32
G1 F1350 X15.206 Y22.768 E41.96709
G1 X14.722 Y24.191 E41.98594
G1 X14.722 Y50.758 E42.3191
G1 X13.418 Y50.758 E42.33545
G1 X11.696 Y51.32 E42.35817
G1 X10.206 Y52.768 E42.38422
G1 X9.722 Y54.191 E42.40307
G1 X9.722 Y170.536 E43.86208
G1 X10.28 Y172.257 E43.88477
G1 X11.479 Y173.493 E43.90636
G1 X12.358 Y174.029 E43.91927
G1 X13.339 Y174.242 E43.93186
G1 X20.186 Y174.242 E44.01773
G1 X19.683 Y174.73 E44.02651
G1 X19.117 Y175.552 E44.03903
G1 X18.869 Y176.667 E44.05335
G1 X18.869 Y191.532 E44.23977
G1 X19.429 Y193.258 E44.26252
G1 X20.628 Y194.495 E44.28413
G1 X21.504 Y195.029 E44.29699
G1 X22.486 Y195.242 E44.30959
G1 X27.571 Y195.242 E44.37336
G1 X29.297 Y194.682 E44.39612
G1 X30.534 Y193.483 E44.41772
G1 X31.068 Y192.607 E44.43058
G1 X31.281 Y191.625 E44.44319
G1 X31.281 Y176.746 E44.62977
G1 X30.72 Y175.018 E44.65256
G1 X29.967 Y174.242 E44.66612
G1 X39.758 Y174.242 E44.7889
G1 X39.255 Y174.73 E44.79769
G1 X38.689 Y175.552 E44.8102
G1 X38.441 Y176.667 E44.82453
G1 X38.441 Y191.532 E45.01094
G1 X39.001 Y193.258 E45.0337
G1 X40.2 Y194.495 E45.0553
G1 X41.076 Y195.029 E45.06816
G1 X42.058 Y195.242 E45.08077
G1 X47.149 Y195.242 E45.14461
G1 X48.877 Y194.681 E45.16739
G1 X50.039 Y193.554 E45.18769
G1 X50.605 Y192.732 E45.20021
G1 X50.853 Y191.617 E45.21453
G1 X50.854 Y176.746 E45.40102
G1 X50.293 Y175.018 E45.4238
G1 X49.54 Y174.242 E45.43736
G1 X54.386 Y174.242 E45.49813
G1 X56.107 Y173.684 E45.52082
G1 X57.343 Y172.485 E45.54242
G1 X57.879 Y171.606 E45.55533
G1 X58.092 Y170.625 E45.56791
G1 X58.092 Y54.613 E47.02275
G1 X57.53 Y52.891 E47.04546
G1 X56.082 Y51.401 E47.07152
G1 X54.659 Y50.917 E47.09037
G1 X53.092 Y50.917 E47.11002
G1 X53.092 Y24.454 E47.44187
G1 X52.53 Y22.732 E47.46459
G1 X51.082 Y21.242 E47.49064
G1 X49.659 Y20.758 E47.50949
G1 X18.418 Y20.758 E47.90127
G1 X16.696 Y21.32 E47.92398
G0 F15000 X16.909 Y21.671
G1 F1350 X18.481 Y21.158 E47.94472
G1 X49.592 Y21.158 E48.33486
G1 X50.862 Y21.59 E48.35169
G1 X52.179 Y22.945 E48.37538
G1 X52.692 Y24.517 E48.39612
G1 X52.692 Y51.317 E48.7322
G1 X54.592 Y51.317 E48.75603
G1 X55.862 Y51.749 E48.77285
G1 X57.179 Y53.104 E48.79655
G1 X57.692 Y54.676 E48.81728
G1 X57.692 Y170.581 E50.27077
G1 X57.502 Y171.455 E50.28199
G1 X57.028 Y172.233 E50.29341
G1 X55.894 Y173.333 E50.31323
G1 X54.325 Y173.842 E50.33391
G1 X48.439 Y173.842 E50.40772
G1 X48.907 Y174.164 E50.41485
G1 X49.942 Y175.231 E50.43349
G1 X50.454 Y176.808 E50.45428
G1 X50.453 Y191.575 E50.63947
G1 X50.232 Y192.567 E50.65221
G1 X49.731 Y193.295 E50.66329
G1 X48.664 Y194.33 E50.68193
G1 X47.087 Y194.842 E50.70273
G1 X42.102 Y194.842 E50.76524
G1 X41.227 Y194.652 E50.77647
G1 X40.449 Y194.178 E50.78789
G1 X39.352 Y193.046 E50.80766
G1 X38.841 Y191.471 E50.82843
G1 X38.841 Y176.709 E51.01355
G1 X39.062 Y175.717 E51.02629
G1 X39.563 Y174.989 E51.03737
G1 X40.564 Y174.018 E51.05486
G1 X40.975 Y173.842 E51.06047
G1 X28.866 Y173.842 E51.21232
G1 X29.334 Y174.164 E51.21944
G1 X30.369 Y175.231 E51.23809
G1 X30.881 Y176.808 E51.25888
G1 X30.881 Y191.581 E51.44414
G1 X30.691 Y192.456 E51.45537
G1 X30.217 Y193.234 E51.46679
G1 X29.085 Y194.331 E51.48656
G1 X27.51 Y194.842 E51.50732
G1 X22.53 Y194.842 E51.56977
G1 X21.655 Y194.652 E51.581
G1 X20.877 Y194.178 E51.59243
G1 X19.78 Y193.046 E51.61219
G1 X19.269 Y191.471 E51.63296
G1 X19.269 Y176.709 E51.81808
G1 X19.49 Y175.717 E51.83083
G1 X19.991 Y174.989 E51.84191
G1 X20.992 Y174.018 E51.8594
G1 X21.403 Y173.842 E51.865
G1 X13.383 Y173.842 E51.96558
G1 X12.509 Y173.652 E51.97679
G1 X11.731 Y173.178 E51.98822
G1 X10.631 Y172.044 E52.00803
G1 X10.122 Y170.475 E52.02872
G1 X10.122 Y54.258 E53.48612
G1 X10.554 Y52.988 E53.50294
